static/logos/getfeedback-wordmark-color.svg

<svg width="100" height="17" viewBox="0 0 100 17" fill="none" xmlns="http://www.w3.org/2000/svg">
<g clip-path="url(#clip0_1_2692)">
<path d="M11.2265 0.473016C10.3503 0.166138 9.40952 0 8.42857 0C7.66349 0 6.92169 0.101587 6.21693 0.292063C3.98624 0.89418 1.75661 2.72275 1.16296 5.01799C0.898413 6.03915 0.933333 7.10159 1.45926 8.03386C1.55661 8.20741 1.66561 8.37354 1.78624 8.53227C1.92381 8.7164 2.07725 8.88995 2.24339 9.04974C2.48254 9.28148 2.74921 9.48677 3.04127 9.66243C4.04762 10.2656 5.22963 10.4423 6.36825 10.1566C7.74286 9.81376 8.84656 8.84339 9.37249 7.55767H7.08466C6.98413 7.55767 6.9037 7.47619 6.9037 7.37566V5.8582C6.9037 5.75767 6.98413 5.67619 7.08466 5.67619H12.4868C12.5873 5.67619 12.6688 5.75767 12.6688 5.8582V11.5767C12.6688 11.6772 12.5873 11.7587 12.4868 11.7587H10.9704C10.8698 11.7587 10.7884 11.6772 10.7884 11.5767V8.94603C9.95661 10.4434 8.53757 11.5545 6.82328 11.982C6.3164 12.109 5.80212 12.1714 5.29206 12.1714C4.16825 12.1714 3.06138 11.8677 2.07302 11.2741C1.64762 11.019 1.25926 10.7185 0.913228 10.3799C0.867725 10.3365 0.82328 10.291 0.779894 10.2455C0.486772 9.9418 0.225397 9.61058 0 9.25397C0.397884 13.5598 4.01905 16.9312 8.42857 16.9312C13.1048 16.9312 16.8942 13.1407 16.8942 8.46561C16.8942 4.77037 14.527 1.62751 11.2265 0.473016Z" fill="#417E62"/>
<path d="M24.821 9.45234H27.1671V11.1793C26.8888 11.391 26.5597 11.5571 26.1808 11.6862C25.7988 11.8121 25.3925 11.8788 24.9554 11.8788C24.4856 11.8788 24.0613 11.7952 23.6824 11.6291C23.3015 11.4629 22.9745 11.2333 22.7025 10.9433C22.4263 10.6576 22.2147 10.3105 22.0655 9.90843C21.9195 9.50419 21.8443 9.06504 21.8443 8.5952V8.56663C21.8443 8.13065 21.9216 7.71478 22.074 7.31901C22.2253 6.92642 22.4359 6.5825 22.7025 6.28938C22.9692 5.99731 23.2845 5.76239 23.6454 5.58673C24.0094 5.41213 24.3999 5.32324 24.821 5.32324C25.1078 5.32324 25.3724 5.34864 25.6126 5.3952C25.8539 5.44388 26.075 5.50948 26.275 5.59308C26.4761 5.67562 26.6676 5.77933 26.8517 5.89996C26.9978 5.99731 27.1406 6.10313 27.2814 6.22059L28.3967 5.10527L28.4115 5.08728C28.1766 4.88728 27.9322 4.7095 27.6835 4.55712C27.4337 4.40262 27.1703 4.27352 26.8919 4.16982C26.6105 4.064 26.3068 3.98463 25.9798 3.92643C25.6528 3.87246 25.2888 3.84389 24.8845 3.84389C24.1957 3.84389 23.5597 3.96982 22.9777 4.22167C22.3978 4.4767 21.8962 4.81849 21.475 5.2513C21.0507 5.68409 20.7226 6.18885 20.4909 6.76557C20.256 7.34229 20.1406 7.9497 20.1406 8.58673V8.61213C20.1406 9.2862 20.2528 9.90843 20.4824 10.482C20.7089 11.0534 21.0295 11.5508 21.4464 11.9762C21.8591 12.4005 22.3607 12.7306 22.9459 12.9709C23.5311 13.2121 24.1819 13.3328 24.8983 13.3328C25.3004 13.3328 25.6845 13.2957 26.0517 13.2217C26.4189 13.1455 26.7628 13.0428 27.0814 12.9137C27.3999 12.7814 27.6972 12.6301 27.9734 12.4555C28.2486 12.2799 28.4983 12.0968 28.7269 11.9042V8.05022H24.821V9.45234ZM31.1655 9.22959C31.2353 8.68779 31.43 8.24864 31.7486 7.91213C32.0681 7.57668 32.4713 7.40737 32.9613 7.40737C33.2237 7.40737 33.4576 7.45604 33.6628 7.55234C33.8681 7.64758 34.0449 7.77668 34.1941 7.93858C34.3422 8.10049 34.4597 8.29202 34.5475 8.5153C34.6343 8.73858 34.6925 8.97668 34.7179 9.22959H31.1655ZM35.4586 7.22324C35.1835 6.88356 34.8375 6.61266 34.4226 6.4116C34.0078 6.21054 33.5253 6.11001 32.974 6.11001C32.4766 6.11001 32.0226 6.20419 31.611 6.39149C31.2004 6.57985 30.8449 6.837 30.5433 7.16504C30.2417 7.49308 30.0078 7.87509 29.8417 8.31213C29.6755 8.74917 29.593 9.21689 29.593 9.71425V9.7407C29.593 10.274 29.6851 10.7619 29.8681 11.2021C30.0512 11.6444 30.3031 12.0211 30.6216 12.3365C30.9412 12.6508 31.3168 12.8952 31.7486 13.0698C32.1814 13.2444 32.647 13.3322 33.1454 13.3322C33.7824 13.3322 34.3316 13.2137 34.7898 12.9777C35.248 12.7428 35.6438 12.4275 35.9761 12.0349L35.0459 11.2095C34.7655 11.4793 34.4819 11.6857 34.1941 11.8254C33.9052 11.964 33.5644 12.0349 33.1718 12.0349C32.6554 12.0349 32.2163 11.8836 31.8533 11.582C31.4914 11.2804 31.266 10.8465 31.1792 10.2783H36.2639C36.2734 10.2 36.2798 10.1227 36.284 10.0486C36.2882 9.97456 36.2904 9.90261 36.2904 9.83276C36.2904 9.33435 36.2205 8.86028 36.0819 8.41054C35.9412 7.96081 35.7337 7.56504 35.4586 7.22324ZM39.3427 4.35341H37.7438V6.25393H36.6369V7.61689H37.7438V11.2613C37.7438 11.6465 37.7925 11.9661 37.8888 12.2243C37.9861 12.4825 38.1248 12.6899 38.3057 12.8465C38.4856 13.0042 38.7004 13.1185 38.9459 13.1883C39.1925 13.2582 39.4602 13.292 39.7491 13.292C40.0464 13.292 40.3089 13.2624 40.5353 13.201C40.7628 13.1407 40.9766 13.0529 41.1777 12.9386V11.6412C40.8634 11.7989 40.5353 11.8772 40.1957 11.8772C39.9237 11.8772 39.7142 11.8095 39.566 11.674C39.4168 11.5386 39.3427 11.3185 39.3427 11.0127V7.61689H41.2041V6.25393H39.3427V4.35341ZM43.9745 5.45446H49.1914V3.99945H42.3755V13.174H43.9745V9.43964H48.0147V7.98462H43.9745V5.45446ZM50.3195 9.22959C50.3893 8.68779 50.584 8.24864 50.9025 7.91213C51.2221 7.57668 51.6253 7.40737 52.1152 7.40737C52.3777 7.40737 52.6115 7.45604 52.8168 7.55234C53.0211 7.64758 53.1989 7.77668 53.347 7.93858C53.4952 8.10049 53.6137 8.29202 53.7015 8.5153C53.7883 8.73858 53.8454 8.97668 53.8719 9.22959H50.3195ZM54.6126 7.22324C54.3364 6.88356 53.9915 6.61266 53.5767 6.4116C53.1618 6.21054 52.6782 6.11001 52.1279 6.11001C51.6306 6.11001 51.1755 6.20419 50.765 6.39149C50.3544 6.57985 49.9978 6.837 49.6972 7.16504C49.3957 7.49308 49.1618 7.87509 48.9957 8.31213C48.8295 8.74917 48.747 9.21689 48.747 9.71425V9.7407C48.747 10.274 48.838 10.7619 49.0221 11.2021C49.2052 11.6444 49.456 12.0211 49.7755 12.3365C50.0941 12.6508 50.4708 12.8952 50.9025 13.0698C51.3353 13.2444 51.8009 13.3322 52.2983 13.3322C52.9364 13.3322 53.4846 13.2137 53.9439 12.9777C54.4021 12.7428 54.7978 12.4275 55.1301 12.0349L54.1999 11.2095C53.9195 11.4793 53.6359 11.6857 53.347 11.8254C53.0592 11.964 52.7184 12.0349 52.3248 12.0349C51.8094 12.0349 51.3703 11.8836 51.0073 11.582C50.6454 11.2804 50.42 10.8465 50.3322 10.2783H55.4179C55.4275 10.2 55.4338 10.1227 55.438 10.0486C55.4423 9.97456 55.4444 9.90261 55.4444 9.83276C55.4444 9.33435 55.3745 8.86028 55.2349 8.41054C55.0952 7.96081 54.8878 7.56504 54.6126 7.22324ZM57.6544 9.22959C57.7243 8.68779 57.919 8.24864 58.2375 7.91213C58.5571 7.57668 58.9603 7.40737 59.4502 7.40737C59.7126 7.40737 59.9465 7.45604 60.1518 7.55234C60.356 7.64758 60.5338 7.77668 60.682 7.93858C60.8301 8.10049 60.9486 8.29202 61.0364 8.5153C61.1232 8.73858 61.1804 8.97668 61.2068 9.22959H57.6544ZM61.9476 7.22324C61.6714 6.88356 61.3264 6.61266 60.9116 6.4116C60.4968 6.21054 60.0142 6.11001 59.4629 6.11001C58.9655 6.11001 58.5105 6.20419 58.0999 6.39149C57.6894 6.57985 57.3327 6.837 57.0322 7.16504C56.7306 7.49308 56.4968 7.87509 56.3306 8.31213C56.1645 8.74917 56.082 9.21689 56.082 9.71425V9.7407C56.082 10.274 56.173 10.7619 56.3571 11.2021C56.5401 11.6444 56.7909 12.0211 57.1105 12.3365C57.429 12.6508 57.8058 12.8952 58.2375 13.0698C58.6703 13.2444 59.1359 13.3322 59.6333 13.3322C60.2714 13.3322 60.8195 13.2137 61.2788 12.9777C61.737 12.7428 62.1327 12.4275 62.465 12.0349L61.5349 11.2095C61.2544 11.4793 60.9708 11.6857 60.682 11.8254C60.3941 11.964 60.0534 12.0349 59.6597 12.0349C59.1444 12.0349 58.7052 11.8836 58.3423 11.582C57.9804 11.2804 57.755 10.8465 57.6671 10.2783H62.7528C62.7624 10.2 62.7687 10.1227 62.773 10.0486C62.7772 9.97456 62.7793 9.90261 62.7793 9.83276C62.7793 9.33435 62.7095 8.86028 62.5698 8.41054C62.4301 7.96081 62.2227 7.56504 61.9476 7.22324ZM69.0005 9.72694C69.0005 10.0592 68.946 10.3619 68.837 10.6317C68.728 10.9026 68.5819 11.1365 68.3989 11.3333C68.2158 11.5291 68.0031 11.6804 67.7587 11.7851C67.5153 11.8899 67.2624 11.9428 67.001 11.9428C66.7312 11.9428 66.4761 11.8899 66.237 11.7851C65.9968 11.6804 65.7862 11.5322 65.6031 11.3396C65.42 11.1481 65.2761 10.9132 65.1714 10.6381C65.0677 10.364 65.0148 10.0592 65.0148 9.72694V9.70155C65.0148 9.35975 65.0677 9.05181 65.1714 8.77668C65.2761 8.50155 65.42 8.26874 65.6031 8.07509C65.7862 7.88356 65.9968 7.73753 66.237 7.637C66.4761 7.53647 66.7312 7.48567 67.001 7.48567C67.2624 7.48567 67.5153 7.53858 67.7587 7.64335C68.0031 7.74811 68.2158 7.89731 68.3989 8.08885C68.5819 8.28144 68.728 8.51425 68.837 8.79044C68.946 9.06557 68.9999 9.36927 68.9999 9.70155V9.72694H69.0005ZM68.974 7.328C68.7206 7.00525 68.4063 6.72165 68.0322 6.47721C67.6571 6.23171 67.1862 6.11001 66.62 6.11001C66.2105 6.11001 65.8116 6.18832 65.4232 6.34599C65.0359 6.50261 64.6931 6.73435 64.3968 7.04017C64.1005 7.34599 63.8634 7.72165 63.6846 8.16716C63.5058 8.61372 63.4158 9.12483 63.4158 9.70155V9.72694C63.4158 10.3047 63.5079 10.8148 63.6909 11.2613C63.8751 11.7068 64.1153 12.0825 64.4126 12.3883C64.7089 12.6941 65.0507 12.9248 65.4349 13.0836C65.819 13.2402 66.2169 13.3195 66.6275 13.3195C67.1872 13.3195 67.656 13.1915 68.0359 12.9386C68.4169 12.6857 68.7333 12.3799 68.9872 12.0211L68.9735 13.1746H70.5724V3.60633H68.9735V7.328H68.974ZM77.1486 9.72694C77.1486 10.0677 77.0957 10.3756 76.9915 10.6518C76.8867 10.9269 76.7449 11.1587 76.5661 11.346C76.3862 11.5344 76.1767 11.6804 75.9364 11.7851C75.6962 11.8899 75.4402 11.9428 75.1693 11.9428C74.8994 11.9428 74.6401 11.8899 74.3957 11.7851C74.1513 11.6804 73.9375 11.5322 73.7544 11.3396C73.5703 11.1481 73.4243 10.9132 73.3142 10.6381C73.2052 10.364 73.1513 10.0592 73.1513 9.72694V9.70155C73.1513 9.36927 73.2052 9.06768 73.3142 8.79679C73.4243 8.52589 73.5703 8.29202 73.7544 8.0952C73.9375 7.89837 74.1513 7.74811 74.3957 7.64335C74.6401 7.53858 74.8994 7.48567 75.1693 7.48567C75.4402 7.48567 75.6962 7.53858 75.9364 7.64335C76.1767 7.74811 76.3862 7.89731 76.5661 8.08885C76.7449 8.28144 76.8867 8.51425 76.9915 8.79044C77.0962 9.06557 77.1491 9.36927 77.1491 9.70155V9.72694H77.1486ZM77.7449 7.04017C77.4433 6.73435 77.1015 6.50261 76.7163 6.34599C76.3322 6.18832 75.9343 6.11001 75.5237 6.11001C74.964 6.11001 74.4962 6.23382 74.1216 6.48356C73.7449 6.73224 73.4306 7.04017 73.1777 7.40737L73.1904 3.60633H71.5915V13.1746H73.1904V12.0994C73.4349 12.4232 73.7439 12.7068 74.1185 12.9523C74.4931 13.1957 74.965 13.3195 75.5312 13.3195C75.9407 13.3195 76.3396 13.2402 76.728 13.0836C77.1153 12.9248 77.4603 12.6941 77.7608 12.3883C78.0613 12.0825 78.3015 11.7068 78.4804 11.2613C78.6581 10.8148 78.7481 10.3047 78.7481 9.72694V9.70155C78.7481 9.12483 78.656 8.61372 78.473 8.16716C78.2888 7.72165 78.0465 7.34599 77.7449 7.04017ZM83.9767 10.6635C83.9767 10.8814 83.9312 11.0814 83.8391 11.2592C83.747 11.4381 83.6179 11.5915 83.4518 11.7185C83.2867 11.8455 83.092 11.9439 82.8698 12.0127C82.6465 12.0836 82.4042 12.1185 82.1417 12.1185C81.7661 12.1185 81.4486 12.0306 81.1915 11.856C80.9333 11.6814 80.8042 11.4285 80.8042 11.0952V11.0698C80.8042 10.7375 80.9439 10.4751 81.2243 10.2836C81.5036 10.091 81.892 9.99467 82.3904 9.99467C82.6962 9.99467 82.9872 10.0211 83.2624 10.073C83.5375 10.1259 83.7756 10.1915 83.9767 10.2698V10.6635ZM82.4698 6.14176C81.9015 6.14176 81.4158 6.19361 81.0148 6.29837C80.6126 6.40313 80.219 6.54282 79.8349 6.71742L80.2677 7.98938C80.582 7.85816 80.892 7.7534 81.1978 7.67509C81.5036 7.59679 81.8529 7.55657 82.2465 7.55657C82.7968 7.55657 83.2179 7.68356 83.5111 7.93647C83.8042 8.19044 83.9502 8.55763 83.9502 9.03806V9.16927C83.6793 9.08144 83.3978 9.0116 83.1047 8.95975C82.8116 8.90684 82.456 8.88038 82.037 8.88038C81.6349 8.88038 81.2613 8.92589 80.9163 9.01795C80.5703 9.11001 80.274 9.2497 80.0243 9.43805C79.7756 9.62641 79.5809 9.86134 79.4412 10.146C79.3015 10.4296 79.2317 10.764 79.2317 11.1481V11.1746C79.2317 11.5238 79.2994 11.8317 79.4349 12.0984C79.5703 12.365 79.7491 12.5873 79.9724 12.7672C80.1947 12.946 80.455 13.0814 80.7523 13.1735C81.0486 13.2656 81.364 13.3111 81.6962 13.3111C82.22 13.3111 82.6655 13.2148 83.0327 13.0222C83.3999 12.8306 83.7015 12.5947 83.9375 12.3153V13.1661H85.51V9.06451C85.51 8.13753 85.2613 7.41901 84.7629 6.9079C84.2645 6.39679 83.5005 6.14176 82.4698 6.14176ZM90.9375 11.7047C90.6529 11.8666 90.3227 11.9471 89.9481 11.9471C89.6412 11.9471 89.3629 11.8888 89.1089 11.7703C88.855 11.6518 88.637 11.4931 88.4529 11.292C88.2698 11.091 88.128 10.855 88.0275 10.5841C87.9269 10.3142 87.8772 10.0254 87.8772 9.71954V9.69308C87.8772 9.39573 87.9269 9.11213 88.0275 8.84123C88.128 8.57033 88.2655 8.33647 88.4402 8.13964C88.6148 7.94282 88.8243 7.78515 89.0698 7.66768C89.3142 7.55022 89.5809 7.49097 89.8687 7.49097C90.2708 7.49097 90.6095 7.57139 90.8857 7.73329C91.1597 7.8952 91.42 8.10261 91.6645 8.35552L92.6476 7.29414C92.3248 6.93647 91.947 6.64758 91.5142 6.42959C91.0814 6.21054 90.5375 6.10155 89.8825 6.10155C89.3671 6.10155 88.8878 6.19784 88.4465 6.39044C88.0052 6.58197 87.6232 6.84229 87.3015 7.16927C86.9798 7.49731 86.729 7.8825 86.5491 8.32271C86.3682 8.76398 86.2772 9.22959 86.2772 9.71954V9.74493C86.2772 10.2349 86.3682 10.6984 86.5491 11.1344C86.729 11.5714 86.9798 11.9513 87.3015 12.2751C87.6232 12.5989 88.0031 12.8539 88.4402 13.0423C88.8772 13.2296 89.3534 13.3238 89.8687 13.3238C90.5417 13.3238 91.0962 13.2031 91.5343 12.9629C91.9714 12.7238 92.3597 12.4105 92.7005 12.0264L91.7439 11.0825C91.4899 11.3354 91.2222 11.5439 90.9375 11.7047ZM99.8465 6.24599H97.9195L95.0486 9.31266V3.59839H93.4497V13.1666H95.0486V11.1867L96.019 10.1772L98.1036 13.1666H99.9375L97.0931 9.06398L99.8465 6.24599Z" fill="#0F1013"/>
</g>
<defs>
<clipPath id="clip0_1_2692">
<rect width="100" height="16.9312" fill="white"/>
</clipPath>
</defs>
</svg>

<svg xmlns="http://www.w3.org/2000/svg" width="376.471" height="64" fill="none" viewBox="0 0 100 17"><g clip-path="url(#a)"><path fill="#417E62" d="M11.226.473A8.445 8.445 0 0 0 8.43 0c-.766 0-1.507.102-2.212.292-2.23.602-4.46 2.43-5.054 4.726-.265 1.021-.23 2.084.296 3.016.098.173.207.34.327.498a4.412 4.412 0 0 0 1.255 1.13 4.365 4.365 0 0 0 3.327.495 4.385 4.385 0 0 0 3.004-2.6H7.085a.181.181 0 0 1-.181-.181V5.858c0-.1.08-.182.18-.182h5.403c.1 0 .182.082.182.182v5.719c0 .1-.082.182-.182.182H10.97a.182.182 0 0 1-.182-.182V8.946a6.258 6.258 0 0 1-3.965 3.036 6.235 6.235 0 0 1-4.75-.708A6.26 6.26 0 0 1 0 9.254 8.466 8.466 0 1 0 11.226.473Z"/><path fill="#0F1013" d="M24.821 9.452h2.346v1.727a3.45 3.45 0 0 1-.986.507 3.882 3.882 0 0 1-1.226.193c-.47 0-.894-.084-1.273-.25a2.94 2.94 0 0 1-.98-.686 2.94 2.94 0 0 1-.637-1.035 3.844 3.844 0 0 1-.22-1.313v-.028c0-.436.077-.852.229-1.248.151-.393.362-.737.628-1.03.267-.292.582-.527.943-.702a2.68 2.68 0 0 1 1.176-.264c.287 0 .551.026.792.072a3.426 3.426 0 0 1 1.24.505c.145.097.288.203.428.32l1.116-1.115.015-.018c-.235-.2-.48-.377-.729-.53a4.459 4.459 0 0 0-.791-.387 5.15 5.15 0 0 0-.912-.244 6.74 6.74 0 0 0-1.096-.082c-.688 0-1.324.126-1.906.378a4.723 4.723 0 0 0-1.503 1.03 4.576 4.576 0 0 0-.984 1.514 4.781 4.781 0 0 0-.35 1.82v.026c0 .674.112 1.296.341 1.87.227.571.547 1.069.964 1.494.413.424.915.755 1.5.995.585.241 1.236.362 1.952.362.402 0 .787-.037 1.154-.111a5.969 5.969 0 0 0 1.03-.308c.318-.133.615-.284.891-.458a7.05 7.05 0 0 0 .754-.552V8.05H24.82v1.402Zm6.345-.222c.07-.542.264-.981.583-1.318.32-.335.722-.505 1.212-.505a1.633 1.633 0 0 1 1.233.532c.148.161.266.353.353.576.087.224.146.462.17.715h-3.551Zm4.293-2.007a2.992 2.992 0 0 0-1.036-.811c-.415-.201-.898-.302-1.449-.302-.497 0-.951.094-1.363.281-.41.189-.766.446-1.068.774-.301.328-.535.71-.701 1.147a3.912 3.912 0 0 0-.249 1.402v.027c0 .533.092 1.02.275 1.461.183.442.435.82.754 1.134.32.315.695.56 1.127.734.432.174.898.262 1.396.262.637 0 1.187-.118 1.645-.354a3.83 3.83 0 0 0 1.186-.943l-.93-.825c-.28.27-.564.476-.852.615-.289.139-.63.21-1.022.21-.517 0-.956-.151-1.319-.453-.362-.302-.587-.736-.674-1.304h5.085a3.607 3.607 0 0 0 .026-.445c0-.499-.07-.973-.208-1.422a3.574 3.574 0 0 0-.623-1.188Zm3.884-2.87h-1.6v1.9h-1.106v1.364h1.107v3.644c0 .386.048.705.145.963.097.258.236.466.417.623.18.157.394.271.64.341.247.07.514.104.803.104.297 0 .56-.03.786-.091.228-.06.442-.148.643-.262V11.64a2.165 2.165 0 0 1-.982.236c-.272 0-.482-.068-.63-.203-.15-.135-.223-.355-.223-.661V7.617h1.861V6.254h-1.861v-1.9Zm4.631 1.101h5.217V4h-6.816v9.175h1.6V9.44h4.04V7.985h-4.04v-2.53ZM50.32 9.23c.07-.542.264-.981.583-1.318.32-.335.722-.505 1.212-.505a1.633 1.633 0 0 1 1.232.532c.148.161.267.353.355.576.086.224.143.462.17.715h-3.553Zm4.293-2.007a3.003 3.003 0 0 0-1.036-.811c-.415-.201-.899-.302-1.45-.302-.496 0-.952.094-1.362.281-.41.189-.767.446-1.068.774-.301.328-.535.71-.701 1.147a3.912 3.912 0 0 0-.249 1.402v.027c0 .533.091 1.02.275 1.461.183.442.434.82.754 1.134.318.315.695.56 1.127.734.432.174.898.262 1.395.262.638 0 1.187-.118 1.646-.354a3.83 3.83 0 0 0 1.186-.943l-.93-.825c-.28.27-.564.476-.853.615-.288.139-.629.21-1.022.21-.516 0-.955-.151-1.318-.453-.362-.302-.587-.736-.675-1.304h5.086a3.535 3.535 0 0 0 .026-.445c0-.499-.07-.973-.21-1.422a3.552 3.552 0 0 0-.621-1.188Zm3.041 2.007c.07-.542.265-.981.583-1.318.32-.335.723-.505 1.213-.505a1.634 1.634 0 0 1 1.232.532c.148.161.267.353.354.576.087.224.144.462.17.715h-3.552Zm4.294-2.007a3.003 3.003 0 0 0-1.036-.811c-.415-.201-.898-.302-1.45-.302-.497 0-.952.094-1.362.281-.41.189-.767.446-1.068.774-.301.328-.535.71-.701 1.147a3.914 3.914 0 0 0-.249 1.402v.027c0 .533.091 1.02.275 1.461.183.442.434.82.754 1.134.318.315.695.56 1.127.734.432.174.898.262 1.395.262.638 0 1.186-.118 1.646-.354a3.83 3.83 0 0 0 1.186-.943l-.93-.825c-.28.27-.564.476-.853.615-.288.139-.629.21-1.022.21-.516 0-.955-.151-1.318-.453-.362-.302-.587-.736-.675-1.304h5.086a3.609 3.609 0 0 0 .026-.445c0-.499-.07-.973-.21-1.422a3.553 3.553 0 0 0-.621-1.188ZM69 9.727a2.4 2.4 0 0 1-.164.905c-.109.27-.255.505-.438.701a1.885 1.885 0 0 1-.64.452 1.899 1.899 0 0 1-.758.158 1.93 1.93 0 0 1-1.398-.603 2.064 2.064 0 0 1-.432-.702 2.561 2.561 0 0 1-.156-.911v-.025c0-.342.053-.65.156-.925.105-.275.249-.508.432-.702.183-.191.394-.337.634-.438a1.953 1.953 0 0 1 2.162.452c.183.192.329.425.438.701.109.276.163.58.163.912v.025Zm-.027-2.399a3.887 3.887 0 0 0-.942-.85c-.375-.246-.846-.368-1.412-.368-.41 0-.808.078-1.197.236-.387.157-.73.388-1.026.694a3.435 3.435 0 0 0-.712 1.127c-.18.447-.27.958-.27 1.535v.025c0 .578.093 1.088.276 1.534.184.446.424.822.722 1.127.296.306.638.537 1.022.696.384.156.782.236 1.192.236.56 0 1.029-.129 1.409-.381.38-.253.697-.56.951-.918l-.013 1.154h1.598V3.606h-1.599v3.722h.001Zm8.175 2.399c0 .34-.053.649-.157.925a1.923 1.923 0 0 1-1.822 1.291 1.948 1.948 0 0 1-1.416-.603 2.153 2.153 0 0 1-.44-.702 2.45 2.45 0 0 1-.163-.911v-.025c0-.333.054-.634.163-.905.11-.271.256-.505.44-.702.183-.197.397-.347.642-.452a1.948 1.948 0 0 1 1.54 0c.24.105.45.254.63.446.179.192.32.425.425.701.105.276.158.58.158.912v.025Zm.596-2.687a3.113 3.113 0 0 0-2.221-.93c-.56 0-1.028.124-1.402.374a3.427 3.427 0 0 0-.944.923l.012-3.8h-1.599v9.568h1.6v-1.076c.244.324.553.608.927.853.375.244.847.367 1.413.367.41 0 .809-.079 1.197-.235.387-.16.732-.39 1.033-.696.3-.306.54-.681.72-1.127.177-.446.267-.956.267-1.534v-.025c0-.577-.092-1.088-.275-1.535a3.47 3.47 0 0 0-.728-1.127Zm6.232 3.624c0 .217-.046.417-.138.595a1.353 1.353 0 0 1-.387.46c-.165.127-.36.225-.582.294-.224.07-.466.105-.728.105-.376 0-.693-.087-.95-.262-.259-.175-.388-.428-.388-.76v-.026c0-.332.14-.595.42-.786.28-.193.668-.29 1.166-.29.306 0 .597.027.872.079.275.053.514.118.715.197v.394ZM82.47 6.142c-.569 0-1.054.052-1.455.156a7.285 7.285 0 0 0-1.18.42l.433 1.271c.314-.13.624-.236.93-.314a4.239 4.239 0 0 1 1.049-.118c.55 0 .97.127 1.264.38.293.253.44.62.44 1.101v.131a6.288 6.288 0 0 0-.846-.21 6.12 6.12 0 0 0-1.068-.079c-.402 0-.776.046-1.12.138a2.55 2.55 0 0 0-.893.42 1.956 1.956 0 0 0-.583.708c-.14.284-.21.618-.21 1.002v.027c0 .349.068.657.204.923.135.267.314.49.537.67.223.178.483.313.78.405.297.093.612.138.944.138.524 0 .97-.096 1.337-.289.367-.191.668-.427.904-.707v.851h1.573V9.065c0-.927-.249-1.646-.747-2.157-.499-.511-1.263-.766-2.293-.766Zm8.468 5.563a1.967 1.967 0 0 1-.99.242c-.307 0-.585-.058-.84-.177a2.057 2.057 0 0 1-1.08-1.186c-.101-.27-.15-.559-.15-.864v-.027c0-.297.049-.58.15-.852.1-.27.237-.505.412-.701.175-.197.384-.355.63-.472.244-.118.51-.177.799-.177.402 0 .74.08 1.017.242.274.162.534.37.779.623l.983-1.062a3.844 3.844 0 0 0-1.134-.864c-.433-.22-.977-.328-1.632-.328a3.599 3.599 0 0 0-2.581 1.068 3.647 3.647 0 0 0-1.024 2.55v.025a3.591 3.591 0 0 0 1.025 2.53 3.588 3.588 0 0 0 2.567 1.049c.673 0 1.227-.12 1.665-.361.437-.24.826-.552 1.166-.937l-.956-.944a3.787 3.787 0 0 1-.806.623Zm8.909-5.459H97.92l-2.871 3.067V3.598h-1.6v9.569h1.6v-1.98l.97-1.01 2.085 2.99h1.834l-2.845-4.103 2.754-2.818Z"/></g><defs><clipPath id="a"><path fill="#fff" d="M0 0h100v16.931H0z"/></clipPath></defs></svg>
